(Generated with: dxf2gcode_b02, Version: TKINTER Beta 02, Date: 2009-11-16)
(Time: Sat Feb 20 21:50:58 2010)
(Created from file: /home/wortley/emc2/nc_files/XYZ/erin.dxf)
G21 (Unit in mm)
G90 (Absolute distance mode)
G64 P0.01 (Exact Path 0.001 tol.)
G17
G40 (Cancel diameter comp.)
G49 (Cancel length comp.)
T1M6 (Tool change to T1)
M8 (Coolant flood on)
S5000M03 (Spindle 5000rpm cw)
G0 Z   5.000 
G0 X  34.897 Y  51.222
G0 Z   3.000 
F15
G1 Z  -1.500
F100
G1 X  32.030 Y  48.355
G1 X  32.030 Y  42.620
G1 X  34.897 Y  39.753
G1 X  40.632 Y  39.753
G1 X  43.499 Y  45.488
G1 X  43.499 Y  51.222
G1 X  40.632 Y  56.957
G1 X  34.897 Y  59.824
G1 X  26.295 Y  59.824
G1 X  20.560 Y  56.957
G1 X  17.693 Y  54.090
G1 X  14.825 Y  48.355
G1 X  14.825 Y  42.620
G1 X  17.693 Y  36.885
G1 X  23.427 Y  34.018
G1 X  17.693 Y  34.018
G1 X   9.090 Y  31.151
G1 X   3.356 Y  25.416
G1 X   0.488 Y  19.681
G1 X   0.488 Y  11.079
G1 X   3.356 Y   5.344
G1 X   6.223 Y   2.477
G1 X  11.958 Y  -0.391
G1 X  20.560 Y  -0.391
G1 X  29.162 Y   2.477
G1 X  34.897 Y   8.212
G1 X  37.764 Y  13.946
G1 X  37.764 Y  19.681
G1 X  34.897 Y  25.416
G1 X  29.162 Y  25.416
G1 X  23.427 Y  22.548
G1 X  20.560 Y  16.814
F15
G1 Z  -3.000
F100
G1 X  23.427 Y  22.548
G1 X  29.162 Y  25.416
G1 X  34.897 Y  25.416
G1 X  37.764 Y  19.681
G1 X  37.764 Y  13.946
G1 X  34.897 Y   8.212
G1 X  29.162 Y   2.477
G1 X  20.560 Y  -0.391
G1 X  11.958 Y  -0.391
G1 X   6.223 Y   2.477
G1 X   3.356 Y   5.344
G1 X   0.488 Y  11.079
G1 X   0.488 Y  19.681
G1 X   3.356 Y  25.416
G1 X   9.090 Y  31.151
G1 X  17.693 Y  34.018
G1 X  23.427 Y  34.018
G1 X  17.693 Y  36.885
G1 X  14.825 Y  42.620
G1 X  14.825 Y  48.355
G1 X  17.693 Y  54.090
G1 X  20.560 Y  56.957
G1 X  26.295 Y  59.824
G1 X  34.897 Y  59.824
G1 X  40.632 Y  56.957
G1 X  43.499 Y  51.222
G1 X  43.499 Y  45.488
G1 X  40.632 Y  39.753
G1 X  34.897 Y  39.753
G1 X  32.030 Y  42.620
G1 X  32.030 Y  48.355
G1 X  34.897 Y  51.222
G1 Z   3.000
G0 Z   5.000 
G0 X  94.037 Y   2.477
G0 Z   3.000 
F15
G1 Z  -1.500
F100
G1 X  85.435 Y  -0.391
G1 X  79.700 Y  -0.391
G1 X  76.832 Y   2.477
G1 X  76.832 Y   8.212
G1 X  79.700 Y  11.079
G1 X  82.567 Y   8.212
G1 X  79.700 Y   5.344
F15
G1 Z  -3.000
F100
G1 X  82.567 Y   8.212
G1 X  79.700 Y  11.079
G1 X  76.832 Y   8.212
G1 X  76.832 Y   2.477
G1 X  79.700 Y  -0.391
G1 X  85.435 Y  -0.391
G1 X  94.037 Y   2.477
G1 Z   3.000
G0 Z   5.000 
G0 X 116.976 Y  56.957
G0 Z   3.000 
F15
G1 Z  -1.500
F100
G1 X 114.108 Y  54.090
G1 X 111.241 Y  48.355
G1 X 105.506 Y  34.018
G1 X  99.771 Y  16.814
G1 X  96.904 Y  11.079
G1 X  91.169 Y   2.477
G1 X  85.435 Y  -0.391
G1 X  94.037 Y   2.477
G1 X  99.771 Y   8.212
G1 X 102.639 Y  13.946
G1 X 105.506 Y  22.548
G1 X 111.241 Y  45.488
G1 X 114.108 Y  54.090
G1 X 116.976 Y  56.957
F15
G1 Z  -3.000
F100
G1 X 114.108 Y  54.090
G1 X 111.241 Y  48.355
G1 X 105.506 Y  34.018
G1 X  99.771 Y  16.814
G1 X  96.904 Y  11.079
G1 X  91.169 Y   2.477
G1 X  85.435 Y  -0.391
G1 X  94.037 Y   2.477
G1 X  99.771 Y   8.212
G1 X 102.639 Y  13.946
G1 X 105.506 Y  22.548
G1 X 111.241 Y  45.488
G1 X 114.108 Y  54.090
G1 X 116.976 Y  56.957
G1 Z   3.000
G0 Z   5.000 
G0 X 116.976 Y  31.151
G0 Z   3.000 
F15
G1 Z  -1.500
F100
G1 X 108.374 Y  34.018
G1 X 114.108 Y  31.151
G1 X 116.976 Y  25.416
G1 X 119.843 Y   5.344
G1 X 125.578 Y  -0.391
G1 X 122.711 Y   5.344
F15
G1 Z  -3.000
F100
G1 X 125.578 Y  -0.391
G1 X 119.843 Y   5.344
G1 X 116.976 Y  25.416
G1 X 114.108 Y  31.151
G1 X 108.374 Y  34.018
G1 X 116.976 Y  31.151
G1 Z   3.000
G0 Z   5.000 
G0 X 298.338 Y  11.079
G0 Z   3.000 
F15
G1 Z  -1.500
F100
G1 X 295.470 Y  -0.391
F15
G1 Z  -3.000
F100
G1 X 298.338 Y  11.079
G1 Z   3.000
G0 Z   5.000 
G0 X 295.470 Y  13.946
G0 Z   3.000 
F15
G1 Z  -1.500
F100
G1 X 295.470 Y  -0.391
G1 X 122.711 Y  59.824
G1 X 128.445 Y  56.957
G1 X 131.313 Y  51.222
G1 X 131.313 Y  45.488
G1 X 128.445 Y  39.753
G1 X 125.578 Y  36.885
G1 X 119.843 Y  34.018
G1 X 108.374 Y  34.018
F15
G1 Z  -3.000
F100
G1 X 295.470 Y  -0.391
G1 X 122.711 Y  59.824
G1 X 128.445 Y  56.957
G1 X 131.313 Y  51.222
G1 X 131.313 Y  45.488
G1 X 128.445 Y  39.753
G1 X 125.578 Y  36.885
G1 X 119.843 Y  34.018
G1 X 108.374 Y  34.018
G1 Z   3.000
G0 Z   5.000 
G0 X  99.771 Y  42.620
G0 Z   3.000 
F15
G1 Z  -1.500
F100
G1 X  96.904 Y  36.885
G1 X  94.037 Y  34.018
G1 X  88.302 Y  34.018
G1 X  85.435 Y  36.885
G1 X  85.435 Y  42.620
G1 X  88.302 Y  48.355
G1 X  94.037 Y  54.090
G1 X  99.771 Y  56.957
G1 X 108.374 Y  59.824
G1 X 122.711 Y  59.824
G1 X 131.313 Y  56.957
G1 X 134.180 Y  51.222
G1 X 134.180 Y  45.488
G1 X 131.313 Y  39.753
G1 X 128.445 Y  36.885
G1 X 119.843 Y  34.018
G1 X 108.374 Y  34.018
G1 X 116.976 Y  31.151
G1 X 119.843 Y  25.416
G1 X 122.711 Y   5.344
G1 X 125.578 Y  -0.391
G1 X 128.445 Y  -0.391
G1 X 134.180 Y   2.477
G1 X 139.915 Y   8.212
F15
G1 Z  -3.000
F100
G1 X 134.180 Y   2.477
G1 X 128.445 Y  -0.391
G1 X 125.578 Y  -0.391
G1 X 122.711 Y   5.344
G1 X 119.843 Y  25.416
G1 X 116.976 Y  31.151
G1 X 108.374 Y  34.018
G1 X 119.843 Y  34.018
G1 X 128.445 Y  36.885
G1 X 131.313 Y  39.753
G1 X 134.180 Y  45.488
G1 X 134.180 Y  51.222
G1 X 131.313 Y  56.957
G1 X 122.711 Y  59.824
G1 X 108.374 Y  59.824
G1 X  99.771 Y  56.957
G1 X  94.037 Y  54.090
G1 X  88.302 Y  48.355
G1 X  85.435 Y  42.620
G1 X  85.435 Y  36.885
G1 X  88.302 Y  34.018
G1 X  94.037 Y  34.018
G1 X  96.904 Y  36.885
G1 X  99.771 Y  42.620
G1 Z   3.000
G0 Z   5.000 
G0 X 190.452 Y   2.477
G0 Z   3.000 
F15
G1 Z  -1.500
F100
G1 X 181.850 Y  -0.391
G1 X 176.116 Y  -0.391
G1 X 173.248 Y   2.477
G1 X 173.248 Y   8.212
G1 X 176.116 Y  11.079
G1 X 178.983 Y   8.212
G1 X 176.116 Y   5.344
F15
G1 Z  -3.000
F100
G1 X 178.983 Y   8.212
G1 X 176.116 Y  11.079
G1 X 173.248 Y   8.212
G1 X 173.248 Y   2.477
G1 X 176.116 Y  -0.391
G1 X 181.850 Y  -0.391
G1 X 190.452 Y   2.477
G1 Z   3.000
G0 Z   5.000 
G0 X 219.126 Y  42.620
G0 Z   3.000 
F15
G1 Z  -1.500
F100
G1 X 213.392 Y  36.885
G1 X 204.789 Y  34.018
G1 X 196.187 Y  34.018
G1 X 190.452 Y  36.885
G1 X 187.585 Y  42.620
G1 X 187.585 Y  48.355
G1 X 190.452 Y  54.090
G1 X 196.187 Y  56.957
G1 X 207.657 Y  59.824
G1 X 219.126 Y  59.824
G1 X 213.392 Y  54.090
G1 X 207.657 Y  45.488
F15
G1 Z  -3.000
F100
G1 X 213.392 Y  54.090
G1 X 219.126 Y  59.824
G1 X 207.657 Y  59.824
G1 X 196.187 Y  56.957
G1 X 190.452 Y  54.090
G1 X 187.585 Y  48.355
G1 X 187.585 Y  42.620
G1 X 190.452 Y  36.885
G1 X 196.187 Y  34.018
G1 X 204.789 Y  34.018
G1 X 213.392 Y  36.885
G1 X 219.126 Y  42.620
G1 Z   3.000
G0 Z   5.000 
G0 X 207.657 Y  45.488
G0 Z   3.000 
F15
G1 Z  -1.500
F100
G1 X 213.392 Y  54.090
G1 X 210.524 Y  48.355
G1 X 204.789 Y  31.151
G1 X 199.055 Y  13.946
G1 X 196.187 Y   8.212
G1 X 190.452 Y   2.477
G1 X 181.850 Y  -0.391
G1 X 187.585 Y   2.477
G1 X 193.320 Y  11.079
G1 X 196.187 Y  16.814
G1 X 201.922 Y  31.151
G1 X 207.657 Y  45.488
F15
G1 Z  -3.000
F100
G1 X 213.392 Y  54.090
G1 X 210.524 Y  48.355
G1 X 204.789 Y  31.151
G1 X 199.055 Y  13.946
G1 X 196.187 Y   8.212
G1 X 190.452 Y   2.477
G1 X 181.850 Y  -0.391
G1 X 187.585 Y   2.477
G1 X 193.320 Y  11.079
G1 X 196.187 Y  16.814
G1 X 201.922 Y  31.151
G1 X 207.657 Y  45.488
G1 Z   3.000
G0 Z   5.000 
G0 X 255.327 Y   5.344
G0 Z   3.000 
F15
G1 Z  -1.500
F100
G1 X 258.194 Y   8.212
G1 X 255.327 Y  11.079
G1 X 252.460 Y   8.212
G1 X 252.460 Y   2.477
G1 X 255.327 Y  -0.391
G1 X 261.062 Y  -0.391
G1 X 266.797 Y   2.477
G1 X 272.531 Y  11.079
G1 X 275.399 Y  16.814
G1 X 281.133 Y  31.151
G1 X 286.868 Y  48.355
G1 X 289.736 Y  59.824
G1 X 289.736 Y  45.488
G1 X 292.603 Y  13.946
G1 X 295.470 Y  -0.391
G1 X  26.295 Y  59.824
G1 X  20.560 Y  54.090
G1 X  17.693 Y  48.355
G1 X  17.693 Y  39.753
G1 X  23.427 Y  34.018
G1 X  17.693 Y  36.885
G1 X 304.073 Y  28.283
G1 X 309.807 Y  42.620
G1 X 312.675 Y  48.355
G1 X 318.409 Y  56.957
G1 X 324.144 Y  59.824
G1 X 329.879 Y  59.824
G1 X 332.746 Y  56.957
G1 X 332.746 Y  54.090
G1 X 329.879 Y  51.222
G1 X 327.012 Y  54.090
G1 X 329.879 Y  56.957
F15
G1 Z  -3.000
F100
G1 X 327.012 Y  54.090
G1 X 329.879 Y  51.222
G1 X 332.746 Y  54.090
G1 X 332.746 Y  56.957
G1 X 329.879 Y  59.824
G1 X 324.144 Y  59.824
G1 X 318.409 Y  56.957
G1 X 312.675 Y  48.355
G1 X 309.807 Y  42.620
G1 X 304.073 Y  28.283
G1 X 298.338 Y  11.079
G1 X  23.427 Y  34.018
G1 X  17.693 Y  39.753
G1 X  17.693 Y  48.355
G1 X  20.560 Y  54.090
G1 X  26.295 Y  59.824
G1 X  20.560 Y  56.957
G1 X 292.603 Y  13.946
G1 X 289.736 Y  45.488
G1 X 289.736 Y  59.824
G1 X 286.868 Y  48.355
G1 X 281.133 Y  31.151
G1 X 275.399 Y  16.814
G1 X 272.531 Y  11.079
G1 X 266.797 Y   2.477
G1 X 261.062 Y  -0.391
G1 X 255.327 Y  -0.391
G1 X 252.460 Y   2.477
G1 X 252.460 Y   8.212
G1 X 255.327 Y  11.079
G1 X 258.194 Y   8.212
G1 X 255.327 Y   5.344
G1 Z   3.000
G0 Z   5.000 
G0 X 289.736 Y  45.488
G0 Z   3.000 
F15
G1 Z  -1.500
F100
G1 X 289.736 Y  59.824
G1 X 292.603 Y  45.488
G1 X 295.470 Y  13.946
G1 X 295.470 Y  -0.391
G1 X  17.693 Y  34.018
G1 X  11.958 Y  31.151
G1 X   6.223 Y  25.416
G1 X   3.356 Y  19.681
G1 X   3.356 Y   8.212
G1 X   6.223 Y   2.477
G1 X  11.958 Y  -0.391
F15
G1 Z  -3.000
F100
G1 X   6.223 Y   2.477
G1 X   3.356 Y   8.212
G1 X   3.356 Y  19.681
G1 X   6.223 Y  25.416
G1 X  11.958 Y  31.151
G1 X  17.693 Y  34.018
G1 X   9.090 Y  31.151
G1 X 295.470 Y  13.946
G1 X 292.603 Y  45.488
G1 X 289.736 Y  59.824
G1 X 289.736 Y  45.488
G1 Z   3.000
G0 Z   5.000 
G0 X   0.000 Y   0.000
M9 (Coolant off)
M5 (Spindle off)
M2 (Prgram end)