(Generated with: dxf2gcode_b02, Version: TKINTER Beta 02, Date: 2010-03-30)
(Time: Sun Apr 25 09:52:39 2010)
(Created from file: C:/Dokumente und Einstellungen/llihab1/Eigene Dateien/Hauber/allg/hauber/Fliegen/Modellfliegen/marabu/Fräsen/Balsaholz/Fluegel/Baustand 02/IFluegel Rippen b2 0201.dxf)
G21 (Unit in mm)
G90 (Absolute distance mode)
G64 P0.01 (Exact Path 0.001 tol.)
G17
G40 (Cancel diameter comp.)
G49 (Cancel length comp.)
T1M6 (Tool change to T1)
M8 (Coolant flood on)
S5000M03 (Spindle 5000rpm cw)
G0 Z   5.000 
G0 X  64.625 Y  52.290
G0 Z   2.000 
F150
G1 Z  -2.500
F400
G42
G1 X  64.823 Y  52.691
G2 X  65.427 Y  52.095 I   0.004 J  -0.600
G1 X  65.437 Y  50.594
G1 X  70.795 Y  50.824
G1 X  79.919 Y  51.236
G1 X  89.173 Y  51.662
G1 X  98.450 Y  52.092
G1 X 107.643 Y  52.512
G1 X 116.645 Y  52.913
G1 X 125.348 Y  53.279
G1 X 133.652 Y  53.597
G1 X 141.446 Y  53.850
G1 X 149.068 Y  54.041
G2 X 149.581 Y  53.541 I   0.013 J  -0.500
G1 X 149.581 Y  50.525
G1 Z   2.000
G0 Z   5.000 
G40
G0 X 147.431 Y  28.489
G0 Z   2.000 
F150
G1 Z  -2.500
F400
G42
G1 X 147.031 Y  28.689
G2 X 147.631 Y  29.289 I   0.600 J   0.000
G1 X 149.131 Y  29.289
G1 X 149.131 Y  32.877
G2 X 149.623 Y  33.377 I   0.500 J   0.000
G1 X 153.298 Y  33.440
G1 X 153.354 Y  36.415
G1 X 148.731 Y  37.228
G1 X 142.405 Y  38.279
G1 X 135.564 Y  39.319
G1 X 128.259 Y  40.318
G1 X 120.559 Y  41.270
G1 X 112.550 Y  42.157
G1 X 104.324 Y  42.961
G1 X  95.967 Y  43.664
G1 X  87.569 Y  44.242
G1 X  79.216 Y  44.677
G1 X  70.996 Y  44.953
G1 X  64.810 Y  45.031
G1 Z   2.000
G0 Z   5.000 
G40
G0 X  64.008 Y  45.225
G0 Z   2.000 
F150
G1 Z  -2.500
F400
G42
G1 X  64.205 Y  45.626
G2 X  64.810 Y  45.031 I   0.004 J  -0.600
G1 X  64.820 Y  43.562
G1 X  64.822 Y  43.262
G2 X  64.326 Y  42.759 I  -0.500 J  -0.004
G1 X  59.326 Y  42.723
G2 X  58.822 Y  43.219 I  -0.004 J   0.500
G1 X  58.820 Y  43.509
G1 X  55.288 Y  43.472
G1 X  47.954 Y  43.202
G1 X  41.044 Y  42.743
G1 X  34.619 Y  42.098
G1 X  28.736 Y  41.276
G1 X  23.446 Y  40.290
G1 X  18.789 Y  39.157
G1 X  14.797 Y  37.900
G1 X  11.494 Y  36.557
G1 X   8.898 Y  35.182
G1 X   7.033 Y  33.855
G1 X   6.142 Y  32.928
G1 Z   2.000
G0 Z   5.000 
G40
G0 X   5.948 Y  32.127
G0 Z   2.000 
F150
G1 Z  -2.500
F400
G42
G1 X   5.546 Y  32.324
G2 X   6.142 Y  32.928 I   0.600 J   0.004
G1 X   9.526 Y  32.953
G2 X  10.029 Y  32.456 I   0.004 J  -0.500
G1 X  10.029 Y  32.456
G2 X   9.533 Y  31.953 I  -0.500 J  -0.004
G1 X   6.145 Y  31.928
G1 X   7.790 Y  31.424
G1 X   8.974 Y  31.221
G2 X   9.390 Y  30.728 I  -0.084 J  -0.493
G1 X   9.390 Y  29.789
G1 Z   2.000
G0 Z   5.000 
G40
G0 X   9.190 Y  28.489
G0 Z   2.000 
F150
G1 Z  -2.500
F400
G42
G1 X   8.790 Y  28.689
G2 X   9.390 Y  29.289 I   0.600 J   0.000
G1 X  10.890 Y  29.289
G1 X  10.890 Y  30.364
G2 X  11.438 Y  30.862 I   0.500 J   0.000
G1 X  14.350 Y  30.581
G1 X  18.956 Y  30.353
G1 X  24.370 Y  30.253
G1 X  30.538 Y  30.272
G1 X  37.393 Y  30.396
G1 X  44.862 Y  30.611
G1 X  52.860 Y  30.899
G1 X  58.930 Y  31.145
G1 X  58.929 Y  31.357
G1 X  58.927 Y  31.657
G2 X  59.423 Y  32.161 I   0.500 J   0.004
G1 X  60.412 Y  32.168
G1 Z   2.000
G0 Z   5.000 
G40
G0 X  61.214 Y  31.974
G0 Z   2.000 
F150
G1 Z  -2.500
F400
G42
G1 X  61.016 Y  31.572
G2 X  60.412 Y  32.168 I  -0.004 J   0.600
G1 X  60.378 Y  36.949
G2 X  60.874 Y  37.453 I   0.500 J   0.004
G1 X  62.874 Y  37.467
G2 X  63.378 Y  36.971 I   0.004 J  -0.500
G1 X  63.412 Y  32.189
G1 X  64.423 Y  32.197
G2 X  64.927 Y  31.700 I   0.004 J  -0.500
G1 X  64.929 Y  31.400
G1 Z   2.000
G0 Z   5.000 
G40
G0 X  64.127 Y  31.594
G0 Z   2.000 
F150
G1 Z  -2.500
F400
G42
G1 X  64.324 Y  31.996
G2 X  64.929 Y  31.400 I   0.004 J  -0.600
G1 X  64.939 Y  29.899
G1 X  70.136 Y  30.125
G1 X  79.146 Y  30.537
G1 X  88.284 Y  30.962
G1 X  97.445 Y  31.391
G1 X 106.522 Y  31.811
G1 X 115.411 Y  32.212
G1 X 124.006 Y  32.578
G1 X 132.205 Y  32.896
G1 X 139.902 Y  33.149
G1 X 147.119 Y  33.335
G2 X 147.631 Y  32.835 I   0.013 J  -0.500
G1 X 147.631 Y  29.789
G1 Z   2.000
G0 Z   5.000 
G40
G0 X 144.989 Y   8.246
G0 Z   2.000 
F150
G1 Z  -2.500
F400
G42
G1 X 144.589 Y   8.446
G2 X 145.189 Y   9.046 I   0.600 J   0.000
G1 X 146.689 Y   9.046
G1 X 146.689 Y  12.650
G2 X 147.180 Y  13.150 I   0.500 J  -0.000
G1 X 150.855 Y  13.215
G1 X 150.910 Y  16.198
G1 X 146.581 Y  16.958
G1 X 140.335 Y  17.993
G1 X 133.580 Y  19.017
G1 X 126.367 Y  20.002
G1 X 118.764 Y  20.938
G1 X 110.856 Y  21.811
G1 X 102.734 Y  22.603
G1 X  94.483 Y  23.294
G1 X  86.191 Y  23.861
G1 X  77.944 Y  24.288
G1 X  69.827 Y  24.558
G1 X  63.815 Y  24.631
G1 Z   2.000
G0 Z   5.000 
G40
G0 X  63.014 Y  24.825
G0 Z   2.000 
F150
G1 Z  -2.500
F400
G42
G1 X  63.211 Y  25.227
G2 X  63.815 Y  24.631 I   0.005 J  -0.600
G1 X  63.826 Y  23.165
G1 X  63.828 Y  22.865
G2 X  63.332 Y  22.361 I  -0.500 J  -0.004
G1 X  58.332 Y  22.323
G2 X  57.829 Y  22.820 I  -0.004 J   0.500
G1 X  57.826 Y  23.110
G1 X  54.319 Y  23.071
G1 X  47.079 Y  22.802
G1 X  40.257 Y  22.346
G1 X  33.914 Y  21.707
G1 X  28.107 Y  20.894
G1 X  22.885 Y  19.919
G1 X  18.289 Y  18.799
G1 X  14.349 Y  17.557
G1 X  11.089 Y  16.231
G1 X   8.529 Y  14.873
G1 X   6.690 Y  13.563
G1 X   5.832 Y  12.671
G1 Z   2.000
G0 Z   5.000 
G40
G0 X   5.638 Y  11.870
G0 Z   2.000 
F150
G1 Z  -2.500
F400
G42
G1 X   5.237 Y  12.067
G2 X   5.832 Y  12.671 I   0.600 J   0.005
G1 X   9.209 Y  12.696
G2 X   9.713 Y  12.200 I   0.004 J  -0.500
G1 X   9.713 Y  12.200
G2 X   9.216 Y  11.696 I  -0.500 J  -0.004
G1 X   5.881 Y  11.671
G1 X   7.430 Y  11.196
G1 X   8.657 Y  10.987
G2 X   9.073 Y  10.494 I  -0.084 J  -0.493
G1 X   9.073 Y   9.546
G1 Z   2.000
G0 Z   5.000 
G40
G0 X   8.873 Y   8.246
G0 Z   2.000 
F150
G1 Z  -2.500
F400
G42
G1 X   8.473 Y   8.446
G2 X   9.073 Y   9.046 I   0.600 J   0.000
G1 X  10.573 Y   9.046
G1 X  10.573 Y  10.137
G2 X  11.121 Y  10.635 I   0.500 J   0.000
G1 X  13.905 Y  10.367
G1 X  18.451 Y  10.143
G1 X  23.797 Y  10.047
G1 X  29.886 Y  10.067
G1 X  36.655 Y  10.193
G1 X  44.028 Y  10.407
G1 X  51.926 Y  10.694
G1 X  57.939 Y  10.941
G1 X  57.938 Y  11.153
G1 X  57.935 Y  11.453
G2 X  58.432 Y  11.956 I   0.500 J   0.004
G1 X  59.421 Y  11.964
G1 Z   2.000
G0 Z   5.000 
G40
G0 X  60.222 Y  11.770
G0 Z   2.000 
F150
G1 Z  -2.500
F400
G42
G1 X  60.025 Y  11.368
G2 X  59.421 Y  11.964 I  -0.005 J   0.600
G1 X  59.386 Y  16.647
G2 X  59.882 Y  17.151 I   0.500 J   0.004
G1 X  61.882 Y  17.166
G2 X  62.385 Y  16.670 I   0.004 J  -0.500
G1 X  62.421 Y  11.986
G1 X  63.432 Y  11.994
G2 X  63.935 Y  11.498 I   0.004 J  -0.500
G1 X  63.938 Y  11.198
G1 Z   2.000
G0 Z   5.000 
G40
G0 X  63.136 Y  11.392
G0 Z   2.000 
F150
G1 Z  -2.500
F400
G42
G1 X  63.333 Y  11.793
G2 X  63.938 Y  11.198 I   0.005 J  -0.600
G1 X  63.949 Y   9.697
G1 X  68.983 Y   9.918
G1 X  77.879 Y  10.327
G1 X  86.901 Y  10.750
G1 X  95.946 Y  11.177
G1 X 104.909 Y  11.595
G1 X 113.685 Y  11.993
G1 X 122.171 Y  12.358
G1 X 130.266 Y  12.674
G1 X 137.865 Y  12.927
G1 X 144.676 Y  13.105
G2 X 145.189 Y  12.605 I   0.013 J  -0.500
G1 X 145.189 Y   9.546
G1 Z   2.000
G0 Z   5.000 
G40
G0 X 324.800 Y  11.419
G0 Z   2.000 
F150
G1 Z  -2.500
F400
G42
G1 X 324.399 Y  11.618
G2 X 324.997 Y  12.220 I   0.600 J   0.002
G1 X 328.431 Y  12.233
G2 X 328.933 Y  11.735 I   0.002 J  -0.500
G1 X 328.933 Y  11.735
G2 X 328.435 Y  11.233 I  -0.500 J  -0.002
G1 X 324.858 Y  11.219
G1 X 325.023 Y  11.112
G1 X 326.991 Y  10.501
G1 X 327.880 Y  10.346
G2 X 328.294 Y   9.853 I  -0.086 J  -0.493
G1 X 328.294 Y   8.914
G1 Z   2.000
G0 Z   5.000 
G40
G0 X 328.094 Y   7.614
G0 Z   2.000 
F150
G1 Z  -2.500
F400
G42
G1 X 327.694 Y   7.814
G2 X 328.294 Y   8.414 I   0.600 J   0.000
G1 X 329.794 Y   8.414
G1 X 329.794 Y   9.439
G2 X 330.344 Y   9.937 I   0.500 J   0.000
G1 X 334.150 Y   9.556
G1 X 339.167 Y   9.291
G1 X 345.063 Y   9.163
G1 X 351.779 Y   9.161
G1 X 359.243 Y   9.272
G1 X 367.373 Y   9.479
G1 X 376.081 Y   9.763
G1 X 382.553 Y  10.005
G1 X 382.553 Y  10.216
G1 X 382.551 Y  10.516
G2 X 383.050 Y  11.018 I   0.500 J   0.002
G1 X 384.039 Y  11.022
G1 Z   2.000
G0 Z   5.000 
G40
G0 X 384.839 Y  10.825
G0 Z   2.000 
F150
G1 Z  -2.500
F400
G42
G1 X 384.641 Y  10.424
G2 X 384.039 Y  11.022 I  -0.002 J   0.600
G1 X 384.018 Y  16.485
G2 X 384.516 Y  16.987 I   0.500 J   0.002
G1 X 386.516 Y  16.994
G2 X 387.018 Y  16.496 I   0.002 J  -0.500
G1 X 387.039 Y  11.033
G1 X 388.049 Y  11.037
G2 X 388.551 Y  10.539 I   0.002 J  -0.500
G1 X 388.553 Y  10.239
G1 Z   2.000
G0 Z   5.000 
G40
G0 X 387.752 Y  10.436
G0 Z   2.000 
F150
G1 Z  -2.500
F400
G42
G1 X 387.950 Y  10.837
G2 X 388.553 Y  10.239 I   0.002 J  -0.600
G1 X 388.558 Y   8.737
G1 X 394.877 Y   8.992
G1 X 404.685 Y   9.407
G1 X 414.632 Y   9.837
G1 X 424.605 Y  10.271
G1 X 434.487 Y  10.696
G1 X 444.163 Y  11.099
G1 X 453.519 Y  11.467
G1 X 462.445 Y  11.783
G1 X 470.823 Y  12.031
G1 X 478.538 Y  12.204
G1 X 480.911 Y  12.237
G2 X 481.417 Y  11.737 I   0.007 J  -0.500
G1 X 481.417 Y   8.914
G1 Z   2.000
G0 Z   5.000 
G40
G0 X 481.217 Y   7.614
G0 Z   2.000 
F150
G1 Z  -2.500
F400
G42
G1 X 480.817 Y   7.814
G2 X 481.417 Y   8.414 I   0.600 J   0.000
G1 X 482.917 Y   8.414
G1 X 482.917 Y  11.771
G2 X 483.411 Y  12.271 I   0.500 J   0.000
G1 X 485.484 Y  12.300
G1 X 487.086 Y  12.305
G1 X 487.151 Y  15.235
G1 X 486.698 Y  15.318
G1 X 480.447 Y  16.439
G1 X 473.566 Y  17.605
G1 X 466.124 Y  18.762
G1 X 458.176 Y  19.876
G1 X 449.799 Y  20.940
G1 X 441.084 Y  21.934
G1 X 432.134 Y  22.839
G1 X 425.420 Y  23.426
G1 Z   2.000
G0 Z   5.000 
G40
G0 X 424.619 Y  23.623
G0 Z   2.000 
F150
G1 Z  -2.500
F400
G42
G1 X 424.818 Y  24.024
G2 X 425.420 Y  23.426 I   0.002 J  -0.600
G1 X 425.422 Y  22.970
G2 X 424.878 Y  22.470 I  -0.500 J  -0.002
G1 X 422.961 Y  22.637
G1 X 413.839 Y  23.296
G1 X 404.766 Y  23.798
G1 X 399.897 Y  23.978
G2 X 399.416 Y  24.476 I   0.018 J   0.500
G1 X 399.414 Y  24.996
G1 X 395.866 Y  25.127
G1 X 388.484 Y  25.245
G1 Z   2.000
G0 Z   5.000 
G40
G0 X 387.683 Y  25.442
G0 Z   2.000 
F150
G1 Z  -2.500
F400
G42
G1 X 387.882 Y  25.842
G2 X 388.484 Y  25.245 I   0.002 J  -0.600
G1 X 388.490 Y  23.765
G1 X 388.491 Y  23.465
G2 X 387.993 Y  22.963 I  -0.500 J  -0.002
G1 X 382.993 Y  22.944
G2 X 382.491 Y  23.442 I  -0.002 J   0.500
G1 X 382.490 Y  23.732
G1 X 378.761 Y  23.705
G1 X 370.774 Y  23.437
G1 X 363.247 Y  22.962
G1 X 356.247 Y  22.283
G1 X 349.835 Y  21.409
G1 X 344.068 Y  20.354
G1 X 338.987 Y  19.135
G1 X 334.628 Y  17.779
G1 X 331.017 Y  16.325
G1 X 328.173 Y  14.830
G1 X 326.121 Y  13.380
G1 X 324.997 Y  12.220
G1 Z   2.000
G0 Z   5.000 
G40
G0 X 326.931 Y  32.438
G0 Z   2.000 
F150
G1 Z  -2.500
F400
G42
G1 X 326.531 Y  32.638
G2 X 327.131 Y  33.238 I   0.600 J   0.000
G1 X 328.631 Y  33.238
G1 X 328.631 Y  34.261
G2 X 329.181 Y  34.759 I   0.500 J   0.000
G1 X 333.115 Y  34.364
G1 X 338.191 Y  34.093
G1 X 344.156 Y  33.960
G1 X 350.950 Y  33.955
G1 X 358.501 Y  34.063
G1 X 366.726 Y  34.268
G1 X 375.536 Y  34.551
G1 X 382.064 Y  34.791
G1 X 382.064 Y  35.002
G1 X 382.063 Y  35.302
G2 X 382.561 Y  35.804 I   0.500 J   0.002
G1 X 383.550 Y  35.807
G1 Z   2.000
G0 Z   5.000 
G40
G0 X 384.351 Y  35.610
G0 Z   2.000 
F150
G1 Z  -2.500
F400
G42
G1 X 384.152 Y  35.209
G2 X 383.550 Y  35.807 I  -0.002 J   0.600
G1 X 383.532 Y  41.368
G2 X 384.030 Y  41.869 I   0.500 J   0.002
G1 X 386.030 Y  41.876
G2 X 386.532 Y  41.378 I   0.002 J  -0.500
G1 X 386.550 Y  35.817
G1 X 387.561 Y  35.820
G2 X 388.063 Y  35.322 I   0.002 J  -0.500
G1 X 388.064 Y  35.022
G1 Z   2.000
G0 Z   5.000 
G40
G0 X 387.263 Y  35.219
G0 Z   2.000 
F150
G1 Z  -2.500
F400
G42
G1 X 387.462 Y  35.620
G2 X 388.064 Y  35.022 I   0.002 J  -0.600
G1 X 388.069 Y  33.521
G1 X 394.549 Y  33.778
G1 X 404.471 Y  34.193
G1 X 414.535 Y  34.623
G1 X 424.624 Y  35.056
G1 X 434.621 Y  35.481
G1 X 444.410 Y  35.884
G1 X 453.875 Y  36.251
G1 X 462.904 Y  36.566
G1 X 471.380 Y  36.813
G1 X 479.185 Y  36.983
G1 X 481.874 Y  37.019
G2 X 482.381 Y  36.519 I   0.007 J  -0.500
G1 X 482.381 Y  33.738
G1 Z   2.000
G0 Z   5.000 
G40
G0 X 482.181 Y  32.438
G0 Z   2.000 
F150
G1 Z  -2.500
F400
G42
G1 X 481.781 Y  32.638
G2 X 482.381 Y  33.238 I   0.600 J   0.000
G1 X 483.881 Y  33.238
G1 X 483.881 Y  36.552
G2 X 484.374 Y  37.052 I   0.500 J  -0.000
G1 X 486.212 Y  37.077
G1 X 488.049 Y  37.082
G1 X 488.116 Y  40.005
G1 X 487.442 Y  40.129
G1 X 481.119 Y  41.267
G1 X 474.158 Y  42.450
G1 X 466.630 Y  43.624
G1 X 458.591 Y  44.756
G1 X 450.116 Y  45.836
G1 X 441.301 Y  46.846
G1 X 432.247 Y  47.767
G1 X 423.048 Y  48.576
G1 X 413.804 Y  49.248
G1 X 404.609 Y  49.762
G1 X 395.559 Y  50.101
G1 X 387.992 Y  50.225
G1 Z   2.000
G0 Z   5.000 
G40
G0 X 387.191 Y  50.422
G0 Z   2.000 
F150
G1 Z  -2.500
F400
G42
G1 X 387.390 Y  50.823
G2 X 387.992 Y  50.225 I   0.002 J  -0.600
G1 X 387.997 Y  48.743
G1 X 387.998 Y  48.443
G2 X 387.499 Y  47.942 I  -0.500 J  -0.002
G1 X 382.499 Y  47.925
G2 X 381.998 Y  48.423 I  -0.002 J   0.500
G1 X 381.997 Y  48.713
G1 X 378.253 Y  48.688
G1 X 370.173 Y  48.421
G1 X 362.557 Y  47.945
G1 X 355.475 Y  47.261
G1 X 348.988 Y  46.381
G1 X 343.152 Y  45.316
G1 X 338.011 Y  44.086
G1 X 333.599 Y  42.716
G1 X 329.943 Y  41.246
G1 X 327.063 Y  39.734
G1 X 324.984 Y  38.267
G1 X 323.827 Y  37.073
G1 Z   2.000
G0 Z   5.000 
G40
G0 X 323.630 Y  36.273
G0 Z   2.000 
F150
G1 Z  -2.500
F400
G42
G1 X 323.229 Y  36.471
G2 X 323.827 Y  37.073 I   0.600 J   0.002
G1 X 327.268 Y  37.085
G2 X 327.770 Y  36.587 I   0.002 J  -0.500
G2 X 327.272 Y  36.085 I  -0.500 J  -0.002
G1 X 323.679 Y  36.073
G1 X 323.876 Y  35.944
G1 X 325.870 Y  35.323
G1 X 326.717 Y  35.175
G2 X 327.131 Y  34.683 I  -0.086 J  -0.493
G1 X 327.131 Y  33.738
G1 Z   2.000
G0 Z   5.000 
G40
G0 X 326.378 Y  56.653
G0 Z   2.000 
F150
G1 Z  -2.500
F400
G42
G1 X 325.978 Y  56.853
G2 X 326.578 Y  57.453 I   0.600 J   0.000
G1 X 328.078 Y  57.453
G1 X 328.078 Y  58.466
G2 X 328.664 Y  58.959 I   0.500 J   0.000
G1 X 328.664 Y  58.959
G1 X 332.688 Y  58.563
G1 X 337.823 Y  58.287
G1 X 343.857 Y  58.149
G1 X 350.729 Y  58.140
G1 X 358.367 Y  58.246
G1 X 366.686 Y  58.449
G1 X 375.597 Y  58.730
G1 X 382.174 Y  58.969
G1 X 382.173 Y  59.180
G1 X 382.172 Y  59.480
G2 X 382.671 Y  59.981 I   0.500 J   0.001
G1 X 383.671 Y  59.984
G1 Z   2.000
G0 Z   5.000 
G40
G0 X 384.471 Y  59.786
G0 Z   2.000 
F150
G1 Z  -2.500
F400
G42
G1 X 384.273 Y  59.386
G2 X 383.671 Y  59.984 I  -0.002 J   0.600
G1 X 383.655 Y  65.642
G2 X 384.154 Y  66.143 I   0.500 J   0.001
G1 X 386.154 Y  66.149
G2 X 386.655 Y  65.650 I   0.001 J  -0.500
G1 X 386.671 Y  59.992
G1 X 387.671 Y  59.995
G2 X 388.172 Y  59.496 I   0.001 J  -0.500
G1 X 388.173 Y  59.196
G1 Z   2.000
G0 Z   5.000 
G40
G0 X 387.373 Y  59.394
G0 Z   2.000 
F150
G1 Z  -2.500
F400
G42
G1 X 387.571 Y  59.795
G2 X 388.173 Y  59.196 I   0.002 J  -0.600
G1 X 388.177 Y  57.695
G1 X 394.827 Y  57.955
G1 X 404.863 Y  58.370
G1 X 415.041 Y  58.799
G1 X 425.246 Y  59.232
G1 X 435.358 Y  59.656
G1 X 445.259 Y  60.059
G1 X 454.832 Y  60.425
G1 X 463.965 Y  60.739
G1 X 472.538 Y  60.984
G1 X 480.433 Y  61.152
G1 X 483.447 Y  61.191
G2 X 483.953 Y  60.691 I   0.006 J  -0.500
G1 X 483.953 Y  57.953
G1 Z   2.000
G0 Z   5.000 
G40
G0 X 483.753 Y  56.653
G0 Z   2.000 
F150
G1 Z  -2.500
F400
G42
G1 X 483.353 Y  56.853
G2 X 483.953 Y  57.453 I   0.600 J   0.000
G1 X 485.453 Y  57.453
G1 X 485.453 Y  60.723
G2 X 485.947 Y  61.223 I   0.500 J   0.000
G1 X 487.540 Y  61.243
G1 X 489.622 Y  61.248
G1 X 489.690 Y  64.162
G1 X 488.786 Y  64.330
G1 X 482.391 Y  65.484
G1 X 475.351 Y  66.684
G1 X 467.737 Y  67.876
G1 X 459.607 Y  69.025
G1 X 451.036 Y  70.122
G1 X 442.120 Y  71.148
G1 X 432.963 Y  72.084
G1 X 423.660 Y  72.907
G1 X 414.310 Y  73.592
G1 X 405.010 Y  74.117
G1 X 395.856 Y  74.464
G1 X 388.120 Y  74.595
G1 Z   2.000
G0 Z   5.000 
G40
G0 X 387.323 Y  73.310
G0 Z   2.000 
F150
G1 Z  -2.500
F400
G42
G1 X 387.522 Y  73.710
G2 X 388.124 Y  73.112 I   0.002 J  -0.600
G1 X 388.125 Y  72.812
G2 X 387.626 Y  72.311 I  -0.500 J  -0.001
G1 X 382.626 Y  72.297
G2 X 382.125 Y  72.795 I  -0.001 J   0.500
G1 X 382.124 Y  73.085
G1 X 378.352 Y  73.062
G1 X 370.179 Y  72.796
G1 X 362.475 Y  72.318
G1 X 355.311 Y  71.631
G1 X 348.748 Y  70.743
G1 X 342.844 Y  69.670
G1 X 337.642 Y  68.428
G1 X 333.178 Y  67.044
G1 X 329.478 Y  65.558
G1 X 326.563 Y  64.030
G1 X 324.457 Y  62.545
G1 X 323.267 Y  61.319
G1 Z   2.000
G0 Z   5.000 
G40
G0 X 388.124 Y  73.095
G0 Z   2.000 
F150
G1 Z  -2.500
F400
G1 X 388.120 Y  74.595
G1 Z   2.000
G0 Z   5.000 
G0 X 326.632 Y  77.496
G0 Z   2.000 
F150
G1 Z  -2.500
F400
G42
G1 X 326.232 Y  77.696
G2 X 326.832 Y  78.296 I   0.600 J   0.000
G1 X 328.332 Y  78.296
G1 X 328.332 Y  79.304
G2 X 328.919 Y  79.796 I   0.500 J   0.000
G1 X 328.849 Y  79.808
G1 X 333.071 Y  79.381
G1 X 338.265 Y  79.099
G1 X 344.368 Y  78.958
G1 X 351.319 Y  78.946
G1 X 359.043 Y  79.050
G1 X 367.458 Y  79.252
G1 X 376.470 Y  79.534
G1 X 383.114 Y  79.773
G1 X 383.113 Y  79.983
G1 X 383.112 Y  80.283
G2 X 383.611 Y  80.785 I   0.500 J   0.001
G1 X 384.600 Y  80.787
G1 Z   2.000
G0 Z   5.000 
G40
G0 X 385.401 Y  80.589
G0 Z   2.000 
F150
G1 Z  -2.500
F400
G42
G1 X 385.202 Y  80.188
G2 X 384.600 Y  80.787 I  -0.001 J   0.600
G1 X 384.586 Y  86.542
G2 X 385.085 Y  87.044 I   0.500 J   0.001
G1 X 387.085 Y  87.048
G2 X 387.586 Y  86.550 I   0.001 J  -0.500
G1 X 387.600 Y  80.794
G1 X 388.611 Y  80.797
G2 X 389.112 Y  80.298 I   0.001 J  -0.500
G1 X 389.113 Y  79.998
G1 Z   2.000
G0 Z   5.000 
G40
G0 X 388.313 Y  80.196
G0 Z   2.000 
F150
G1 Z  -2.500
F400
G42
G1 X 388.512 Y  80.597
G2 X 389.113 Y  79.998 I   0.001 J  -0.600
G1 X 389.117 Y  78.497
G1 X 395.917 Y  78.761
G1 X 406.067 Y  79.176
G1 X 416.362 Y  79.607
G1 X 426.683 Y  80.042
G1 X 436.909 Y  80.467
G1 X 446.923 Y  80.870
G1 X 456.606 Y  81.237
G1 X 465.843 Y  81.552
G1 X 474.513 Y  81.796
G1 X 482.497 Y  81.964
G1 X 485.828 Y  82.005
G2 X 486.334 Y  81.505 I   0.006 J  -0.500
G1 X 486.334 Y  78.796
G1 Z   2.000
G0 Z   5.000 
G40
G0 X 486.134 Y  77.496
G0 Z   2.000 
F150
G1 Z  -2.500
F400
G42
G1 X 485.734 Y  77.696
G2 X 486.334 Y  78.296 I   0.600 J   0.000
G1 X 487.834 Y  78.296
G1 X 487.834 Y  81.537
G2 X 488.328 Y  82.037 I   0.500 J   0.000
G1 X 489.686 Y  82.053
G1 X 492.003 Y  82.058
G1 X 492.071 Y  84.966
G1 X 490.946 Y  85.175
G1 X 484.479 Y  86.344
G1 X 477.360 Y  87.561
G1 X 469.660 Y  88.768
G1 X 461.437 Y  89.933
G1 X 452.769 Y  91.046
G1 X 443.753 Y  92.087
G1 X 434.492 Y  93.037
G1 X 425.083 Y  93.873
G1 X 415.628 Y  94.568
G1 X 406.222 Y  95.102
G1 X 396.964 Y  95.457
G1 X 389.053 Y  95.594
G1 Z   2.000
G0 Z   5.000 
G40
G0 X 388.253 Y  95.792
G0 Z   2.000 
F150
G1 Z  -2.500
F400
G42
G1 X 388.452 Y  96.192
G2 X 389.053 Y  95.594 I   0.001 J  -0.600
G1 X 389.058 Y  93.809
G2 X 388.559 Y  93.308 I  -0.500 J  -0.001
G1 X 383.559 Y  93.295
G2 X 383.058 Y  93.794 I  -0.001 J   0.500
G1 X 383.057 Y  94.084
G1 X 379.260 Y  94.062
G1 X 370.994 Y  93.796
G1 X 363.202 Y  93.316
G1 X 355.955 Y  92.622
G1 X 349.317 Y  91.727
G1 X 343.344 Y  90.643
G1 X 338.082 Y  89.389
G1 X 333.565 Y  87.990
G1 X 329.821 Y  86.489
G1 X 326.871 Y  84.943
G1 X 324.738 Y  83.441
G1 X 323.515 Y  82.181
G1 Z   2.000
G0 Z   5.000 
G40
G0 X 323.317 Y  81.381
G0 Z   2.000 
F150
G1 Z  -2.500
F400
G42
G1 X 322.916 Y  81.580
G2 X 323.515 Y  82.181 I   0.600 J   0.001
G1 X 326.970 Y  82.189
G2 X 327.471 Y  81.691 I   0.001 J  -0.500
G2 X 326.972 Y  81.190 I  -0.500 J  -0.001
G1 X 323.346 Y  81.181
G1 X 323.610 Y  81.008
G1 X 325.656 Y  80.369
G1 X 326.419 Y  80.235
G2 X 326.832 Y  79.743 I  -0.087 J  -0.492
G1 X 326.832 Y  78.796
G1 Z   2.000
G0 Z   5.000 
G40
G0 X 323.069 Y  60.518
G0 Z   2.000 
F150
G1 Z  -2.500
F400
G42
G1 X 322.669 Y  60.717
G2 X 323.267 Y  61.319 I   0.600 J   0.002
G1 X 326.715 Y  61.329
G2 X 327.216 Y  60.830 I   0.001 J  -0.500
G1 X 327.216 Y  60.830
G2 X 326.718 Y  60.329 I  -0.500 J  -0.001
G1 X 323.108 Y  60.319
G1 X 323.339 Y  60.168
G1 X 325.359 Y  59.538
G1 X 326.164 Y  59.397
G2 X 326.578 Y  58.904 I  -0.086 J  -0.492
G1 X 326.578 Y  57.953
G1 Z   2.000
G0 Z   5.000 
G40
G0 X 220.475 Y  32.940
G0 Z   2.000 
F150
G1 Z  -2.500
F400
G42
G1 X 220.673 Y  33.341
G2 X 221.276 Y  32.744 I   0.003 J  -0.600
G1 X 221.284 Y  31.243
G1 X 227.120 Y  31.486
G1 X 236.586 Y  31.900
G1 X 246.186 Y  32.328
G1 X 255.811 Y  32.761
G1 X 265.348 Y  33.184
G1 X 274.686 Y  33.586
G1 X 283.716 Y  33.954
G1 X 292.330 Y  34.271
G1 X 300.416 Y  34.522
G1 X 307.862 Y  34.699
G1 X 309.277 Y  34.720
G2 X 309.785 Y  34.221 I   0.008 J  -0.500
G1 X 309.785 Y  31.297
G1 Z   2.000
G0 Z   5.000 
G40
G0 X 309.585 Y  29.997
G0 Z   2.000 
F150
G1 Z  -2.500
F400
G42
G1 X 309.185 Y  30.197
G2 X 309.785 Y  30.797 I   0.600 J   0.000
G1 X 311.285 Y  30.797
G1 X 311.285 Y  34.259
G2 X 311.777 Y  34.759 I   0.500 J   0.000
G1 X 314.567 Y  34.801
G1 X 315.453 Y  34.805
G1 X 315.514 Y  37.755
G1 X 309.699 Y  38.789
G1 X 303.056 Y  39.906
G1 X 295.872 Y  41.012
G1 X 288.200 Y  42.077
G1 X 280.112 Y  43.092
G1 X 271.700 Y  44.040
G1 X 263.060 Y  44.901
G1 X 256.663 Y  45.452
G1 Z   2.000
G0 Z   5.000 
G40
G0 X 255.862 Y  45.647
G0 Z   2.000 
F150
G1 Z  -2.500
F400
G42
G1 X 256.060 Y  46.048
G2 X 256.663 Y  45.452 I   0.003 J  -0.600
G1 X 256.666 Y  44.995
G2 X 256.123 Y  44.494 I  -0.500 J  -0.003
G1 X 254.205 Y  44.659
G1 X 245.400 Y  45.282
G1 X 236.644 Y  45.755
G1 X 231.140 Y  45.951
G2 X 230.658 Y  46.448 I   0.018 J   0.500
G1 X 230.655 Y  46.968
G1 X 228.053 Y  47.061
G1 X 221.179 Y  47.161
G1 Z   2.000
G0 Z   5.000 
G40
G0 X 220.378 Y  47.356
G0 Z   2.000 
F150
G1 Z  -2.500
F400
G42
G1 X 220.575 Y  47.757
G2 X 221.179 Y  47.161 I   0.003 J  -0.600
G1 X 221.186 Y  45.685
G1 X 221.188 Y  45.385
G2 X 220.691 Y  44.883 I  -0.500 J  -0.003
G1 X 215.691 Y  44.857
G2 X 215.188 Y  45.354 I  -0.003 J   0.500
G1 X 215.186 Y  45.644
G1 X 211.547 Y  45.612
G1 X 203.840 Y  45.343
G1 X 196.577 Y  44.875
G1 X 189.824 Y  44.210
G1 X 183.639 Y  43.358
G1 X 178.077 Y  42.333
G1 X 173.178 Y  41.150
G1 X 168.976 Y  39.837
G1 X 165.497 Y  38.430
G1 X 162.759 Y  36.986
G1 X 160.787 Y  35.589
G1 X 159.764 Y  34.529
G1 Z   2.000
G0 Z   5.000 
G40
G0 X 159.568 Y  33.728
G0 Z   2.000 
F150
G1 Z  -2.500
F400
G42
G1 X 159.167 Y  33.926
G2 X 159.764 Y  34.529 I   0.600 J   0.003
G1 X 163.176 Y  34.547
G2 X 163.679 Y  34.049 I   0.003 J  -0.500
G1 X 163.679 Y  34.049
G2 X 163.181 Y  33.547 I  -0.500 J  -0.003
G1 X 159.654 Y  33.528
G1 X 159.719 Y  33.486
G1 X 161.609 Y  32.902
G1 X 162.625 Y  32.726
G2 X 163.039 Y  32.233 I  -0.085 J  -0.493
G1 X 163.039 Y  31.297
G1 Z   2.000
G0 Z   5.000 
G40
G0 X 162.839 Y  29.997
G0 Z   2.000 
F150
G1 Z  -2.500
F400
G42
G1 X 162.439 Y  30.197
G2 X 163.039 Y  30.797 I   0.600 J   0.000
G1 X 164.539 Y  30.797
G1 X 164.539 Y  31.841
G2 X 165.088 Y  32.338 I   0.500 J   0.000
G1 X 168.511 Y  32.001
G1 X 173.352 Y  31.752
G1 X 179.042 Y  31.636
G1 X 185.523 Y  31.644
G1 X 192.726 Y  31.761
G1 X 200.572 Y  31.971
G1 X 208.976 Y  32.257
G1 X 215.277 Y  32.501
G1 X 215.276 Y  32.713
G1 X 215.274 Y  33.013
G2 X 215.772 Y  33.515 I   0.500 J   0.003
G1 X 216.761 Y  33.521
G1 Z   2.000
G0 Z   5.000 
G40
G0 X 217.562 Y  33.325
G0 Z   2.000 
F150
G1 Z  -2.500
F400
G42
G1 X 217.364 Y  32.924
G2 X 216.761 Y  33.521 I  -0.003 J   0.600
G1 X 216.733 Y  38.691
G2 X 217.231 Y  39.194 I   0.500 J   0.003
G1 X 219.231 Y  39.204
G2 X 219.733 Y  38.707 I   0.003 J  -0.500
G1 X 219.760 Y  33.536
G1 X 220.771 Y  33.542
G2 X 221.274 Y  33.044 I   0.003 J  -0.500
G1 X 221.276 Y  32.744
G1 Z   2.000
G0 Z   5.000 
G40
G0 X 216.155 Y  25.652
G0 Z   2.000 
F150
G1 Z  -2.500
F400
G42
G1 X 216.353 Y  26.053
G2 X 216.956 Y  25.456 I   0.003 J  -0.600
G1 X 216.965 Y  23.983
G1 X 216.966 Y  23.683
G2 X 216.469 Y  23.180 I  -0.500 J  -0.003
G1 X 211.469 Y  23.152
G2 X 210.966 Y  23.649 I  -0.003 J   0.500
G1 X 210.965 Y  23.939
G1 X 207.353 Y  23.907
G1 X 199.740 Y  23.638
G1 X 192.565 Y  23.173
G1 X 185.893 Y  22.514
G1 X 179.784 Y  21.670
G1 X 174.289 Y  20.655
G1 X 169.450 Y  19.486
G1 X 165.301 Y  18.186
G1 X 161.865 Y  16.796
G1 X 159.163 Y  15.370
G1 X 157.217 Y  13.990
G1 X 156.227 Y  12.963
G1 Z   2.000
G0 Z   5.000 
G40
G0 X 156.031 Y  12.162
G0 Z   2.000 
F150
G1 Z  -2.500
F400
G42
G1 X 155.630 Y  12.360
G2 X 156.227 Y  12.963 I   0.600 J   0.003
G1 X 159.632 Y  12.982
G2 X 160.135 Y  12.485 I   0.003 J  -0.500
G1 X 160.135 Y  12.485
G2 X 159.638 Y  11.982 I  -0.500 J  -0.003
G1 X 156.127 Y  11.963
G1 X 156.158 Y  11.942
G1 X 158.023 Y  11.367
G1 X 159.080 Y  11.184
G2 X 159.495 Y  10.692 I  -0.085 J  -0.493
G1 X 159.495 Y   9.748
G1 Z   2.000
G0 Z   5.000 
G40
G0 X 159.295 Y   8.448
G0 Z   2.000 
F150
G1 Z  -2.500
F400
G42
G1 X 158.895 Y   8.648
G2 X 159.495 Y   9.248 I   0.600 J   0.000
G1 X 160.995 Y   9.248
G1 X 160.995 Y  10.306
G2 X 161.544 Y  10.803 I   0.500 J  -0.000
G1 X 164.840 Y  10.480
G1 X 169.622 Y  10.236
G1 X 175.243 Y  10.123
G1 X 181.646 Y  10.133
G1 X 188.762 Y  10.251
G1 X 196.514 Y  10.461
G1 X 204.817 Y  10.747
G1 X 211.059 Y  10.991
G1 X 211.057 Y  11.202
G1 X 211.056 Y  11.502
G2 X 211.553 Y  12.005 I   0.500 J   0.003
G1 X 212.542 Y  12.011
G1 Z   2.000
G0 Z   5.000 
G40
G0 X 213.343 Y  11.815
G0 Z   2.000 
F150
G1 Z  -2.500
F400
G42
G1 X 213.145 Y  11.414
G2 X 212.542 Y  12.011 I  -0.003 J   0.600
G1 X 212.514 Y  17.084
G2 X 213.011 Y  17.587 I   0.500 J   0.003
G1 X 215.011 Y  17.598
G2 X 215.514 Y  17.101 I   0.003 J  -0.500
G1 X 215.542 Y  12.027
G1 X 216.553 Y  12.033
G2 X 217.056 Y  11.536 I   0.003 J  -0.500
G1 X 217.057 Y  11.236
G1 Z   2.000
G0 Z   5.000 
G40
G0 X 216.256 Y  11.431
G0 Z   2.000 
F150
G1 Z  -2.500
F400
G42
G1 X 216.454 Y  11.832
G2 X 217.057 Y  11.236 I   0.003 J  -0.600
G1 X 217.066 Y   9.735
G1 X 222.744 Y   9.973
G1 X 232.096 Y  10.385
G1 X 241.581 Y  10.812
G1 X 251.091 Y  11.242
G1 X 260.513 Y  11.664
G1 X 269.739 Y  12.065
G1 X 278.661 Y  12.431
G1 X 287.171 Y  12.747
G1 X 295.160 Y  12.998
G1 X 302.517 Y  13.175
G1 X 303.607 Y  13.192
G2 X 304.115 Y  12.692 I   0.008 J  -0.500
G1 X 304.115 Y   9.748
G1 Z   2.000
G0 Z   5.000 
G40
G0 X 303.915 Y   8.448
G0 Z   2.000 
F150
G1 Z  -2.500
F400
G42
G1 X 303.515 Y   8.648
G2 X 304.115 Y   9.248 I   0.600 J   0.000
G1 X 305.615 Y   9.248
G1 X 305.615 Y  12.731
G2 X 306.107 Y  13.231 I   0.500 J   0.000
G1 X 309.141 Y  13.279
G1 X 309.783 Y  13.282
G1 X 309.843 Y  16.239
G1 X 304.331 Y  17.217
G1 X 297.767 Y  18.318
G1 X 290.668 Y  19.408
G1 X 283.088 Y  20.458
G1 X 275.097 Y  21.458
G1 X 266.785 Y  22.391
G1 X 258.249 Y  23.240
G1 X 251.953 Y  23.779
G1 Z   2.000
G0 Z   5.000 
G40
G0 X 251.152 Y  23.975
G0 Z   2.000 
F150
G1 Z  -2.500
F400
G42
G1 X 251.350 Y  24.376
G2 X 251.953 Y  23.779 I   0.003 J  -0.600
G1 X 251.956 Y  23.323
G2 X 251.413 Y  22.822 I  -0.500 J  -0.003
G1 X 249.499 Y  22.986
G1 X 240.800 Y  23.598
G1 X 232.148 Y  24.062
G1 X 226.430 Y  24.263
G2 X 225.948 Y  24.760 I   0.018 J   0.500
G1 X 225.945 Y  25.281
G1 X 223.661 Y  25.361
G1 X 216.956 Y  25.456
G1 Z   2.000
G0 Z   5.000 
G40
G0 X 217.823 Y  59.769
G0 Z   2.000 
F150
G1 Z  -2.500
F400
G42
G1 X 218.021 Y  60.170
G2 X 218.624 Y  59.573 I   0.003 J  -0.600
G1 X 218.631 Y  58.071
G1 X 224.629 Y  58.318
G1 X 234.209 Y  58.732
G1 X 243.925 Y  59.161
G1 X 253.667 Y  59.593
G1 X 263.318 Y  60.016
G1 X 272.770 Y  60.419
G1 X 281.908 Y  60.785
G1 X 290.627 Y  61.102
G1 X 298.810 Y  61.352
G1 X 306.346 Y  61.527
G1 X 308.078 Y  61.552
G2 X 308.585 Y  61.052 I   0.007 J  -0.500
G1 X 308.585 Y  58.166
G1 Z   2.000
G0 Z   5.000 
G40
G0 X 308.385 Y  56.866
G0 Z   2.000 
F150
G1 Z  -2.500
F400
G42
G1 X 307.985 Y  57.066
G2 X 308.585 Y  57.666 I   0.600 J   0.000
G1 X 310.085 Y  57.666
G1 X 310.085 Y  61.089
G2 X 310.578 Y  61.589 I   0.500 J   0.000
G1 X 313.131 Y  61.627
G1 X 314.253 Y  61.631
G1 X 314.316 Y  64.576
G1 X 314.314 Y  64.576
G1 X 308.207 Y  65.666
G1 X 301.485 Y  66.799
G1 X 294.214 Y  67.922
G1 X 286.450 Y  69.004
G1 X 278.266 Y  70.036
G1 X 269.753 Y  70.999
G1 X 261.010 Y  71.876
G1 X 254.505 Y  72.439
G1 Z   2.000
G0 Z   5.000 
G40
G0 X 253.704 Y  72.635
G0 Z   2.000 
F150
G1 Z  -2.500
F400
G42
G1 X 253.902 Y  73.036
G2 X 254.505 Y  72.439 I   0.003 J  -0.600
G1 X 254.507 Y  71.983
G2 X 253.964 Y  71.482 I  -0.500 J  -0.002
G1 X 252.048 Y  71.648
G1 X 243.138 Y  72.283
G1 X 234.276 Y  72.766
G1 X 228.982 Y  72.957
G2 X 228.500 Y  73.454 I   0.018 J   0.500
G1 X 228.498 Y  73.975
G1 X 225.582 Y  74.080
G1 X 218.533 Y  74.186
G1 Z   2.000
G0 Z   5.000 
G40
G0 X 217.732 Y  74.382
G0 Z   2.000 
F150
G1 Z  -2.500
F400
G42
G1 X 217.930 Y  74.783
G2 X 218.533 Y  74.186 I   0.003 J  -0.600
G1 X 218.540 Y  72.709
G1 X 218.542 Y  72.409
G2 X 218.044 Y  71.907 I  -0.500 J  -0.002
G1 X 213.044 Y  71.883
G2 X 212.542 Y  72.381 I  -0.002 J   0.500
G1 X 212.540 Y  72.671
G1 X 208.875 Y  72.641
G1 X 201.075 Y  72.373
G1 X 193.724 Y  71.903
G1 X 186.889 Y  71.233
G1 X 180.628 Y  70.374
G1 X 174.997 Y  69.339
G1 X 170.037 Y  68.145
G1 X 165.783 Y  66.817
G1 X 162.259 Y  65.395
G1 X 159.486 Y  63.934
G1 X 157.487 Y  62.519
G1 X 156.430 Y  61.426
G1 Z   2.000
G0 Z   5.000 
G40
G0 X 156.234 Y  60.625
G0 Z   2.000 
F150
G1 Z  -2.500
F400
G42
G1 X 155.833 Y  60.823
G2 X 156.430 Y  61.426 I   0.600 J   0.003
G1 X 159.850 Y  61.442
G2 X 160.352 Y  60.944 I   0.002 J  -0.500
G2 X 159.855 Y  60.442 I  -0.500 J  -0.002
G1 X 156.311 Y  60.425
G1 X 156.409 Y  60.362
G1 X 158.325 Y  59.768
G1 X 159.299 Y  59.599
G2 X 159.713 Y  59.107 I  -0.085 J  -0.493
G1 X 159.713 Y  58.166
G1 Z   2.000
G0 Z   5.000 
G40
G0 X 159.513 Y  56.866
G0 Z   2.000 
F150
G1 Z  -2.500
F400
G42
G1 X 159.113 Y  57.066
G2 X 159.713 Y  57.666 I   0.600 J   0.000
G1 X 161.213 Y  57.666
G1 X 161.213 Y  58.707
G2 X 161.763 Y  59.204 I   0.500 J   0.000
G1 X 165.313 Y  58.853
G1 X 170.213 Y  58.598
G1 X 175.972 Y  58.478
G1 X 182.531 Y  58.482
G1 X 189.821 Y  58.596
G1 X 197.762 Y  58.805
G1 X 206.268 Y  59.090
G1 X 212.625 Y  59.333
G1 X 212.624 Y  59.544
G1 X 212.622 Y  59.844
G2 X 213.120 Y  60.347 I   0.500 J   0.002
G1 X 214.109 Y  60.351
G1 Z   2.000
G0 Z   5.000 
G40
G0 X 214.910 Y  60.155
G0 Z   2.000 
F150
G1 Z  -2.500
F400
G42
G1 X 214.712 Y  59.754
G2 X 214.109 Y  60.351 I  -0.003 J   0.600
G1 X 214.084 Y  65.620
G2 X 214.582 Y  66.122 I   0.500 J   0.002
G1 X 216.582 Y  66.132
G2 X 217.084 Y  65.634 I   0.002 J  -0.500
G1 X 217.109 Y  60.366
G1 X 218.120 Y  60.370
G2 X 218.622 Y  59.873 I   0.002 J  -0.500
G1 X 218.624 Y  59.573
G1 Z   2.000
G0 Z   5.000 
G40
G0 X 220.818 Y  79.771
G0 Z   2.000 
F150
G1 Z  -2.500
F400
G42
G1 X 221.016 Y  80.171
G2 X 221.618 Y  79.574 I   0.003 J  -0.600
G1 X 221.625 Y  78.073
G1 X 227.785 Y  78.323
G1 X 237.479 Y  78.736
G1 X 247.312 Y  79.165
G1 X 257.169 Y  79.597
G1 X 266.936 Y  80.020
G1 X 276.500 Y  80.423
G1 X 285.748 Y  80.789
G1 X 294.570 Y  81.105
G1 X 302.851 Y  81.353
G1 X 310.477 Y  81.526
G1 X 312.525 Y  81.556
G2 X 313.032 Y  81.056 I   0.007 J  -0.500
G1 X 313.032 Y  78.209
G1 Z   2.000
G0 Z   5.000 
G40
G0 X 312.832 Y  76.909
G0 Z   2.000 
F150
G1 Z  -2.500
F400
G42
G1 X 312.432 Y  77.109
G2 X 313.032 Y  77.709 I   0.600 J   0.000
G1 X 314.532 Y  77.709
G1 X 314.532 Y  81.091
G2 X 315.025 Y  81.591 I   0.500 J   0.000
G1 X 317.343 Y  81.624
G1 X 318.700 Y  81.629
G1 X 318.764 Y  84.567
G1 X 318.541 Y  84.608
G1 X 312.362 Y  85.713
G1 X 305.560 Y  86.864
G1 X 298.204 Y  88.004
G1 X 290.348 Y  89.103
G1 X 282.067 Y  90.151
G1 X 273.453 Y  91.131
G1 X 264.606 Y  92.023
G1 X 257.994 Y  92.599
G1 Z   2.000
G0 Z   5.000 
G40
G0 X 257.193 Y  92.795
G0 Z   2.000 
F150
G1 Z  -2.500
F400
G42
G1 X 257.392 Y  93.196
G2 X 257.994 Y  92.599 I   0.003 J  -0.600
G1 X 257.996 Y  92.142
G2 X 257.453 Y  91.642 I  -0.500 J  -0.002
G1 X 255.539 Y  91.809
G1 X 246.522 Y  92.456
G1 X 237.555 Y  92.950
G1 X 232.471 Y  93.135
G2 X 231.989 Y  93.633 I   0.018 J   0.500
G1 X 231.987 Y  94.154
G1 X 228.757 Y  94.272
G1 X 221.535 Y  94.384
G1 Z   2.000
G0 Z   5.000 
G40
G0 X 220.734 Y  94.581
G0 Z   2.000 
F150
G1 Z  -2.500
F400
G42
G1 X 220.932 Y  94.982
G2 X 221.535 Y  94.384 I   0.003 J  -0.600
G1 X 221.541 Y  92.906
G1 X 221.542 Y  92.606
G2 X 221.044 Y  92.104 I  -0.500 J  -0.002
G1 X 216.044 Y  92.083
G2 X 215.542 Y  92.581 I  -0.002 J   0.500
G1 X 215.541 Y  92.871
G1 X 211.851 Y  92.842
G1 X 203.958 Y  92.575
G1 X 196.518 Y  92.103
G1 X 189.600 Y  91.429
G1 X 183.264 Y  90.563
G1 X 177.564 Y  89.519
G1 X 172.544 Y  88.313
G1 X 168.237 Y  86.971
G1 X 164.669 Y  85.533
G1 X 161.860 Y  84.055
G1 X 159.835 Y  82.623
G1 X 158.744 Y  81.496
G1 Z   2.000
G0 Z   5.000 
G40
G0 X 158.548 Y  80.695
G0 Z   2.000 
F150
G1 Z  -2.500
F400
G42
G1 X 158.147 Y  80.894
G2 X 158.744 Y  81.496 I   0.600 J   0.003
G1 X 162.171 Y  81.511
G2 X 162.673 Y  81.013 I   0.002 J  -0.500
G1 X 162.673 Y  81.013
G2 X 162.175 Y  80.511 I  -0.500 J  -0.002
G1 X 158.615 Y  80.496
G1 X 158.746 Y  80.410
G1 X 160.689 Y  79.808
G1 X 161.620 Y  79.646
G2 X 162.034 Y  79.153 I  -0.086 J  -0.493
G1 X 162.034 Y  78.209
G1 Z   2.000
G0 Z   5.000 
G40
G0 X 161.834 Y  76.909
G0 Z   2.000 
F150
G1 Z  -2.500
F400
G42
G1 X 161.434 Y  77.109
G2 X 162.034 Y  77.709 I   0.600 J   0.000
G1 X 163.534 Y  77.709
G1 X 163.534 Y  78.746
G2 X 164.084 Y  79.243 I   0.500 J   0.000
G1 X 167.762 Y  78.877
G1 X 172.721 Y  78.617
G1 X 178.548 Y  78.492
G1 X 185.186 Y  78.493
G1 X 192.563 Y  78.605
G1 X 200.599 Y  78.812
G1 X 209.206 Y  79.096
G1 X 215.619 Y  79.338
G1 X 215.618 Y  79.549
G1 X 215.617 Y  79.849
G2 X 216.115 Y  80.351 I   0.500 J   0.002
G1 X 217.104 Y  80.355
G1 Z   2.000
G0 Z   5.000 
G40
G0 X 217.905 Y  80.158
G0 Z   2.000 
F150
G1 Z  -2.500
F400
G42
G1 X 217.707 Y  79.758
G2 X 217.104 Y  80.355 I  -0.003 J   0.600
G1 X 217.082 Y  85.721
G2 X 217.580 Y  86.223 I   0.500 J   0.002
G1 X 219.580 Y  86.231
G2 X 220.082 Y  85.734 I   0.002 J  -0.500
G1 X 220.104 Y  80.368
G1 X 221.115 Y  80.372
G2 X 221.617 Y  79.874 I   0.002 J  -0.500
G1 X 221.618 Y  79.574
G1 Z   2.000
G0 Z   5.000 
G40
G0 X 149.851 Y  70.947
G0 Z   2.000 
F150
G1 Z  -2.500
F400
G42
G1 X 149.451 Y  71.147
G2 X 150.051 Y  71.747 I   0.600 J   0.000
G1 X 151.551 Y  71.747
G1 X 151.551 Y  75.266
G2 X 152.043 Y  75.766 I   0.500 J   0.000
G1 X 155.312 Y  75.819
G1 X 155.718 Y  75.821
G1 X 155.777 Y  78.783
G1 X 150.558 Y  79.707
G1 X 144.074 Y  80.791
G1 X 137.061 Y  81.864
G1 X 129.573 Y  82.897
G1 X 121.679 Y  83.881
G1 X 113.468 Y  84.799
G1 X 105.035 Y  85.632
G1 X  98.847 Y  86.159
G1 Z   2.000
G0 Z   5.000 
G40
G0 X  98.046 Y  86.354
G0 Z   2.000 
F150
G1 Z  -2.500
F400
G42
G1 X  98.244 Y  86.756
G2 X  98.847 Y  86.159 I   0.004 J  -0.600
G1 X  98.850 Y  85.703
G2 X  98.308 Y  85.202 I  -0.500 J  -0.003
G1 X  96.391 Y  85.365
G1 X  87.798 Y  85.965
G1 X  79.252 Y  86.419
G1 X  73.324 Y  86.624
G2 X  72.841 Y  87.121 I   0.017 J   0.500
G1 X  72.838 Y  87.642
G1 X  70.868 Y  87.710
G1 X  64.338 Y  87.799
G1 Z   2.000
G0 Z   5.000 
G40
G0 X  63.536 Y  87.994
G0 Z   2.000 
F150
G1 Z  -2.500
F400
G42
G1 X  63.734 Y  88.395
G2 X  64.338 Y  87.799 I   0.004 J  -0.600
G1 X  64.347 Y  86.327
G1 X  64.348 Y  86.027
G2 X  63.852 Y  85.524 I  -0.500 J  -0.003
G1 X  58.852 Y  85.494
G2 X  58.349 Y  85.991 I  -0.003 J   0.500
G1 X  58.347 Y  86.281
G1 X  54.761 Y  86.246
G1 X  47.241 Y  85.977
G1 X  40.154 Y  85.514
G1 X  33.565 Y  84.859
G1 X  27.531 Y  84.023
G1 X  22.105 Y  83.018
G1 X  17.327 Y  81.860
G1 X  13.230 Y  80.575
G1 X   9.838 Y  79.201
G1 X   7.172 Y  77.791
G1 X   5.253 Y  76.429
G1 X   4.295 Y  75.436
G1 Z   2.000
G0 Z   5.000 
G40
G0 X   4.100 Y  74.635
G0 Z   2.000 
F150
G1 Z  -2.500
F400
G42
G1 X   3.699 Y  74.832
G2 X   4.295 Y  75.436 I   0.600 J   0.004
G1 X   7.694 Y  75.457
G2 X   8.197 Y  74.960 I   0.003 J  -0.500
G1 X   8.197 Y  74.960
G2 X   7.700 Y  74.457 I  -0.500 J  -0.003
G1 X   4.205 Y  74.435
G1 X   6.042 Y  73.870
G1 X   7.142 Y  73.681
G2 X   7.557 Y  73.188 I  -0.085 J  -0.493
G1 X   7.557 Y  72.247
G1 Z   2.000
G0 Z   5.000 
G40
G0 X   7.357 Y  70.947
G0 Z   2.000 
F150
G1 Z  -2.500
F400
G42
G1 X   6.957 Y  71.147
G2 X   7.557 Y  71.747 I   0.600 J   0.000
G1 X   9.057 Y  71.747
G1 X   9.057 Y  72.809
G2 X   9.606 Y  73.307 I   0.500 J  -0.000
G1 X  12.773 Y  72.998
G1 X  17.496 Y  72.759
G1 X  23.049 Y  72.651
G1 X  29.373 Y  72.664
G1 X  36.402 Y  72.784
G1 X  44.059 Y  72.996
G1 X  52.261 Y  73.282
G1 X  58.446 Y  73.527
G1 X  58.445 Y  73.739
G1 X  58.443 Y  74.039
G2 X  58.940 Y  74.542 I   0.500 J   0.003
G1 X  59.929 Y  74.548
G1 Z   2.000
G0 Z   5.000 
G40
G0 X  60.730 Y  74.353
G0 Z   2.000 
F150
G1 Z  -2.500
F400
G42
G1 X  60.533 Y  73.952
G2 X  59.929 Y  74.548 I  -0.004 J   0.600
G1 X  59.899 Y  79.524
G2 X  60.396 Y  80.027 I   0.500 J   0.003
G1 X  62.396 Y  80.039
G2 X  62.899 Y  79.542 I   0.003 J  -0.500
G1 X  62.929 Y  74.566
G1 X  63.940 Y  74.573
G2 X  64.443 Y  74.076 I   0.003 J  -0.500
G1 X  64.445 Y  73.776
G1 Z   2.000
G0 Z   5.000 
G40
G0 X  63.644 Y  73.971
G0 Z   2.000 
F150
G1 Z  -2.500
F400
G42
G1 X  63.841 Y  74.372
G2 X  64.445 Y  73.776 I   0.004 J  -0.600
G1 X  64.454 Y  72.274
G1 X  69.970 Y  72.509
G1 X  79.208 Y  72.921
G1 X  88.577 Y  73.347
G1 X  97.971 Y  73.778
G1 X 107.278 Y  74.199
G1 X 116.392 Y  74.599
G1 X 125.204 Y  74.965
G1 X 133.611 Y  75.283
G1 X 141.502 Y  75.534
G1 X 149.539 Y  75.732
G2 X 150.051 Y  75.232 I   0.012 J  -0.500
G1 X 150.051 Y  72.247
G1 Z   2.000
G0 Z   5.000 
G40
G0 X 149.381 Y  49.225
G0 Z   2.000 
F150
G1 Z  -2.500
F400
G42
G1 X 148.981 Y  49.425
G2 X 149.581 Y  50.025 I   0.600 J   0.000
G1 X 151.081 Y  50.025
G1 X 151.081 Y  53.579
G2 X 151.573 Y  54.079 I   0.500 J   0.000
G1 X 155.086 Y  54.138
G1 X 155.248 Y  54.139
G1 X 155.305 Y  57.108
G1 X 150.389 Y  57.976
G1 X 143.983 Y  59.043
G1 X 137.056 Y  60.099
G1 X 129.659 Y  61.116
G1 X 121.862 Y  62.083
G1 X 113.752 Y  62.986
G1 X 105.422 Y  63.805
G1 X  99.336 Y  64.320
G1 Z   2.000
G0 Z   5.000 
G40
G0 X  98.534 Y  64.514
G0 Z   2.000 
F150
G1 Z  -2.500
F400
G42
G1 X  98.732 Y  64.916
G2 X  99.336 Y  64.320 I   0.004 J  -0.600
G1 X  99.339 Y  63.863
G2 X  98.797 Y  63.362 I  -0.500 J  -0.003
G1 X  96.883 Y  63.524
G1 X  88.396 Y  64.112
G1 X  79.955 Y  64.556
G1 X  73.812 Y  64.766
G2 X  73.329 Y  65.262 I   0.017 J   0.500
G1 X  73.325 Y  65.783
G1 X  71.674 Y  65.839
G1 X  65.313 Y  65.922
G1 Z   2.000
G0 Z   5.000 
G40
G0 X  64.512 Y  66.117
G0 Z   2.000 
F150
G1 Z  -2.500
F400
G42
G1 X  64.709 Y  66.519
G2 X  65.313 Y  65.922 I   0.004 J  -0.600
G1 X  65.323 Y  64.452
G1 X  65.325 Y  64.152
G2 X  64.828 Y  63.649 I  -0.500 J  -0.003
G1 X  59.829 Y  63.616
G2 X  59.325 Y  64.113 I  -0.003 J   0.500
G1 X  59.323 Y  64.403
G1 X  55.765 Y  64.367
G1 X  48.338 Y  64.097
G1 X  41.339 Y  63.636
G1 X  34.833 Y  62.986
G1 X  28.874 Y  62.157
G1 X  23.516 Y  61.161
G1 X  18.798 Y  60.016
G1 X  14.754 Y  58.745
G1 X  11.406 Y  57.386
G1 X   8.775 Y  55.993
G1 X   6.883 Y  54.649
G1 X   5.958 Y  53.689
G1 Z   2.000
G0 Z   5.000 
G40
G0 X   5.764 Y  52.888
G0 Z   2.000 
F150
G1 Z  -2.500
F400
G42
G1 X   5.362 Y  53.085
G2 X   5.958 Y  53.689 I   0.600 J   0.004
G1 X   9.349 Y  53.712
G2 X   9.853 Y  53.215 I   0.003 J  -0.500
G1 X   9.853 Y  53.215
G2 X   9.356 Y  52.712 I  -0.500 J  -0.003
G1 X   5.916 Y  52.689
G1 X   7.656 Y  52.153
G1 X   8.798 Y  51.958
G2 X   9.213 Y  51.465 I  -0.084 J  -0.493
G1 X   9.213 Y  50.525
G1 Z   2.000
G0 Z   5.000 
G40
G0 X   9.013 Y  49.225
G0 Z   2.000 
F150
G1 Z  -2.500
F400
G42
G1 X   8.613 Y  49.425
G2 X   9.213 Y  50.025 I   0.600 J   0.000
G1 X  10.713 Y  50.025
G1 X  10.713 Y  51.093
G2 X  11.261 Y  51.591 I   0.500 J   0.000
G1 X  14.302 Y  51.296
G1 X  18.966 Y  51.063
G1 X  24.450 Y  50.959
G1 X  30.696 Y  50.975
G1 X  37.639 Y  51.097
G1 X  45.202 Y  51.311
G1 X  53.302 Y  51.597
G1 X  59.428 Y  51.843
G1 X  59.427 Y  52.055
G1 X  59.425 Y  52.355
G2 X  59.921 Y  52.858 I   0.500 J   0.003
G1 X  60.910 Y  52.865
G1 Z   2.000
G0 Z   5.000 
G40
G0 X  61.712 Y  52.670
G0 Z   2.000 
F150
G1 Z  -2.500
F400
G42
G1 X  61.514 Y  52.269
G2 X  60.910 Y  52.865 I  -0.004 J   0.600
G1 X  60.878 Y  57.744
G2 X  61.375 Y  58.247 I   0.500 J   0.003
G1 X  63.375 Y  58.260
G2 X  63.878 Y  57.764 I   0.003 J  -0.500
G1 X  63.910 Y  52.885
G1 X  64.921 Y  52.892
G2 X  65.425 Y  52.395 I   0.003 J  -0.500
G1 X  65.427 Y  52.095
G1 Z   2.000
G0 Z   5.000 
G40
G0 X   0.000 Y   0.000
M9 (Coolant off)
M5 (Spindle off)
M2 (Prgram end)