(Generated with: dxf2gcode_b02, Version: TKINTER Beta 02, Date: 2010-03-30)
(Time: Sun Apr 25 09:39:59 2010)
(Created from file: C:/Dokumente und Einstellungen/llihab1/Eigene Dateien/Hauber/allg/hauber/Fliegen/Modellfliegen/marabu/Fräsen/Balsaholz/Fluegel/Baustand 02/IFluegel Rippen b2 0201.dxf)
G21 (Unit in mm)
G90 (Absolute distance mode)
G64 P0.01 (Exact Path 0.001 tol.)
G17
G40 (Cancel diameter comp.)
G49 (Cancel length comp.)
T1M6 (Tool change to T1)
M8 (Coolant flood on)
S5000M03 (Spindle 5000rpm cw)
G0 Z   5.000 
G0 X  27.180 Y  33.643
G0 Z   2.000 
F150
G1 Z  -2.500
F400
G42
G1 X  27.321 Y  33.219
G2 X  26.473 Y  33.219 I  -0.424 J   0.424
G2 X  30.008 Y  36.754 I   1.768 J   1.768
G2 X  26.473 Y  33.219 I  -1.768 J  -1.768
G1 Z   2.000
G0 Z   5.000 
G40
G0 X  27.197 Y  54.393
G0 Z   2.000 
F150
G1 Z  -2.500
F400
G42
G1 X  27.338 Y  53.969
G2 X  26.490 Y  53.969 I  -0.424 J   0.424
G2 X  30.025 Y  57.505 I   1.768 J   1.768
G2 X  26.490 Y  53.969 I  -1.768 J  -1.768
G1 Z   2.000
G0 Z   5.000 
G40
G0 X  25.734 Y  76.130
G0 Z   2.000 
F150
G1 Z  -2.500
F400
G42
G1 X  25.876 Y  75.706
G2 X  25.027 Y  75.706 I  -0.424 J   0.424
G2 X  28.563 Y  79.241 I   1.768 J   1.768
G2 X  25.027 Y  75.706 I  -1.768 J  -1.768
G1 Z   2.000
G0 Z   5.000 
G40
G0 X  74.288 Y  81.693
G0 Z   2.000 
F150
G1 Z  -2.500
F400
G42
G1 X  74.429 Y  81.269
G2 X  73.580 Y  81.269 I  -0.424 J   0.424
G2 X  77.151 Y  84.840 I   1.785 J   1.785
G2 X  73.580 Y  81.269 I  -1.785 J  -1.785
G1 Z   2.000
G0 Z   5.000 
G40
G0 X 178.470 Y  62.091
G0 Z   2.000 
F150
G1 Z  -2.500
F400
G42
G1 X 178.611 Y  61.667
G2 X 177.763 Y  61.667 I  -0.424 J   0.424
G2 X 181.298 Y  65.202 I   1.768 J   1.768
G2 X 177.763 Y  61.667 I  -1.768 J  -1.768
G1 Z   2.000
G0 Z   5.000 
G40
G0 X 180.984 Y  82.150
G0 Z   2.000 
F150
G1 Z  -2.500
F400
G42
G1 X 181.126 Y  81.726
G2 X 180.277 Y  81.726 I  -0.424 J   0.424
G2 X 183.813 Y  85.262 I   1.768 J   1.768
G2 X 180.277 Y  81.726 I  -1.768 J  -1.768
G1 Z   2.000
G0 Z   5.000 
G40
G0 X 229.782 Y  67.864
G0 Z   2.000 
F150
G1 Z  -2.500
F400
G42
G1 X 229.923 Y  67.440
G2 X 229.075 Y  67.440 I  -0.424 J   0.424
G2 X 232.964 Y  71.329 I   1.945 J   1.945
G2 X 229.075 Y  67.440 I  -1.945 J  -1.945
G1 Z   2.000
G0 Z   5.000 
G40
G0 X 233.428 Y  88.200
G0 Z   2.000 
F150
G1 Z  -2.500
F400
G42
G1 X 233.570 Y  87.776
G2 X 232.721 Y  87.776 I  -0.424 J   0.424
G2 X 236.292 Y  91.347 I   1.785 J   1.785
G2 X 232.721 Y  87.776 I  -1.785 J  -1.785
G1 Z   2.000
G0 Z   5.000 
G40
G0 X 346.555 Y  82.796
G0 Z   2.000 
F150
G1 Z  -2.500
F400
G42
G1 X 346.697 Y  82.372
G2 X 345.848 Y  82.372 I  -0.424 J   0.424
G2 X 349.384 Y  85.908 I   1.768 J   1.768
G2 X 345.848 Y  82.372 I  -1.768 J  -1.768
G1 Z   2.000
G0 Z   5.000 
G40
G0 X 346.107 Y  61.942
G0 Z   2.000 
F150
G1 Z  -2.500
F400
G42
G1 X 346.249 Y  61.518
G2 X 345.400 Y  61.518 I  -0.424 J   0.424
G2 X 348.936 Y  65.054 I   1.768 J   1.768
G2 X 345.400 Y  61.518 I  -1.768 J  -1.768
G1 Z   2.000
G0 Z   5.000 
G40
G0 X 346.468 Y  37.709
G0 Z   2.000 
F150
G1 Z  -2.500
F400
G42
G1 X 346.609 Y  37.284
G2 X 345.760 Y  37.284 I  -0.424 J   0.424
G2 X 349.296 Y  40.820 I   1.768 J   1.768
G2 X 345.760 Y  37.284 I  -1.768 J  -1.768
G1 Z   2.000
G0 Z   5.000 
G40
G0 X 347.437 Y  12.867
G0 Z   2.000 
F150
G1 Z  -2.500
F400
G42
G1 X 347.578 Y  12.442
G2 X 346.730 Y  12.442 I  -0.424 J   0.424
G2 X 350.265 Y  15.978 I   1.768 J   1.768
G2 X 346.730 Y  12.442 I  -1.768 J  -1.768
G1 Z   2.000
G0 Z   5.000 
G40
G0 X 231.942 Y  40.859
G0 Z   2.000 
F150
G1 Z  -2.500
F400
G42
G1 X 232.083 Y  40.434
G2 X 231.235 Y  40.434 I  -0.424 J   0.424
G2 X 235.124 Y  44.323 I   1.945 J   1.945
G2 X 231.235 Y  40.434 I  -1.945 J  -1.945
G1 Z   2.000
G0 Z   5.000 
G40
G0 X 227.233 Y  19.172
G0 Z   2.000 
F150
G1 Z  -2.500
F400
G42
G1 X 227.374 Y  18.748
G2 X 226.526 Y  18.748 I  -0.424 J   0.424
G2 X 230.415 Y  22.637 I   1.945 J   1.945
G2 X 226.526 Y  18.748 I  -1.945 J  -1.945
G1 Z   2.000
G0 Z   5.000 
G40
G0 X 181.603 Y  35.205
G0 Z   2.000 
F150
G1 Z  -2.500
F400
G42
G1 X 181.744 Y  34.781
G2 X 180.896 Y  34.781 I  -0.424 J   0.424
G2 X 184.431 Y  38.316 I   1.768 J   1.768
G2 X 180.896 Y  34.781 I  -1.768 J  -1.768
G1 Z   2.000
G0 Z   5.000 
G40
G0 X 177.866 Y  13.647
G0 Z   2.000 
F150
G1 Z  -2.500
F400
G42
G1 X 178.007 Y  13.222
G2 X 177.159 Y  13.222 I  -0.424 J   0.424
G2 X 180.694 Y  16.758 I   1.768 J   1.768
G2 X 177.159 Y  13.222 I  -1.768 J  -1.768
G1 Z   2.000
G0 Z   5.000 
G40
G0 X  26.670 Y  13.392
G0 Z   2.000 
F150
G1 Z  -2.500
F400
G42
G1 X  26.812 Y  12.968
G2 X  25.963 Y  12.968 I  -0.424 J   0.424
G2 X  29.499 Y  16.503 I   1.768 J   1.768
G2 X  25.963 Y  12.968 I  -1.768 J  -1.768
G1 Z   2.000
G0 Z   5.000 
G40
G0 X   0.000 Y   0.000
M9 (Coolant off)
M5 (Spindle off)
M2 (Prgram end)